X:10
T:Mui\~neira de Piadela
R:muineira
D:Lizgairo
O:Galicia
Z:id:hn-muineira-10
M:6/8
L:1/8
K:C
cBc | G2E FAG | GEC EGF | FDB, EAG | GEC
cBc | G2E FAG | GEC EGF | FDB, DED | C3 :|
|: EDC | B,CD G2F | EDC EDC | B,CD DCD | EDC
EDC | B,CD G2F | EDC EDC | B,CD DED | C3 :|
|: zEF | GAB cBc | A2G cBc | GAG FEF | GEC
CEF  | GAB cBc | A2G cBc | GAG FED | C3 :|
|: EDC | B,CD G2F | EDC EDC | B,CD DCD | EDC
EDC | B,CD G2F | EDC EDC | B,CD DED | C3 :|

